assets/components_previews/data-display/light/avatar.svg

<svg xmlns="http://www.w3.org/2000/svg" width="320" height="232" fill="none" viewBox="0 0 320 232"><g filter="url(#a)"><rect width="80" height="80" x="80" y="76" fill="#fff" rx="40"/><path fill="#AA99EC" d="M112.77 120.642c-1.886 1.123-6.832 3.417-3.82 6.287 1.472 1.402 3.111 2.404 5.171 2.404h11.758c2.06 0 3.699-1.002 5.171-2.404 3.012-2.87-1.934-5.164-3.82-6.287-4.424-2.634-10.036-2.634-14.46 0M126 108.667a6 6 0 1 1-12 0 6 6 0 0 1 12 0" opacity=".33"/></g><g filter="url(#b)"><rect width="80" height="80" x="120" y="76" fill="#fff" rx="40"/><path fill="#AA99EC" d="M152.77 120.642c-1.886 1.123-6.832 3.417-3.82 6.287 1.472 1.402 3.111 2.404 5.171 2.404h11.758c2.06 0 3.699-1.002 5.171-2.404 3.012-2.87-1.934-5.164-3.82-6.287-4.424-2.634-10.036-2.634-14.46 0M166 108.667a6 6 0 1 1-12 0 6 6 0 0 1 12 0" opacity=".66"/></g><g filter="url(#c)"><rect width="80" height="80" x="160" y="76" fill="#fff" rx="40"/><path fill="#AA99EC" d="M192.77 120.642c-1.886 1.123-6.832 3.417-3.82 6.287 1.472 1.402 3.111 2.404 5.171 2.404h11.758c2.06 0 3.699-1.002 5.171-2.404 3.012-2.87-1.934-5.164-3.82-6.287-4.424-2.634-10.036-2.634-14.46 0M206 108.667a6 6 0 1 1-12 0 6 6 0 0 1 12 0"/></g><defs><filter id="a" width="120" height="120" x="60" y="68" color-interpolation-filters="sRGB" filterUnits="userSpaceOnUse"><feFlood flood-opacity="0" result="BackgroundImageFix"/><feColorMatrix in="SourceAlpha" result="hardAlpha" values="0 0 0 0 0 0 0 0 0 0 0 0 0 0 0 0 0 0 127 0"/><feOffset dy="12"/><feGaussianBlur stdDeviation="10"/><feComposite in2="hardAlpha" operator="out"/><feColorMatrix values="0 0 0 0 0 0 0 0 0 0 0 0 0 0 0 0 0 0 0.03 0"/><feBlend in2="BackgroundImageFix" result="effect1_dropShadow_10060_19120"/><feColorMatrix in="SourceAlpha" result="hardAlpha" values="0 0 0 0 0 0 0 0 0 0 0 0 0 0 0 0 0 0 127 0"/><feOffset dy="2"/><feGaussianBlur stdDeviation="3"/><feComposite in2="hardAlpha" operator="out"/><feColorMatrix values="0 0 0 0 0 0 0 0 0 0 0 0 0 0 0 0 0 0 0.05 0"/><feBlend in2="effect1_dropShadow_10060_19120" result="effect2_dropShadow_10060_19120"/><feBlend in="SourceGraphic" in2="effect2_dropShadow_10060_19120" result="shape"/></filter><filter id="b" width="120" height="120" x="100" y="68" color-interpolation-filters="sRGB" filterUnits="userSpaceOnUse"><feFlood flood-opacity="0" result="BackgroundImageFix"/><feColorMatrix in="SourceAlpha" result="hardAlpha" values="0 0 0 0 0 0 0 0 0 0 0 0 0 0 0 0 0 0 127 0"/><feOffset dy="12"/><feGaussianBlur stdDeviation="10"/><feComposite in2="hardAlpha" operator="out"/><feColorMatrix values="0 0 0 0 0 0 0 0 0 0 0 0 0 0 0 0 0 0 0.03 0"/><feBlend in2="BackgroundImageFix" result="effect1_dropShadow_10060_19120"/><feColorMatrix in="SourceAlpha" result="hardAlpha" values="0 0 0 0 0 0 0 0 0 0 0 0 0 0 0 0 0 0 127 0"/><feOffset dy="2"/><feGaussianBlur stdDeviation="3"/><feComposite in2="hardAlpha" operator="out"/><feColorMatrix values="0 0 0 0 0 0 0 0 0 0 0 0 0 0 0 0 0 0 0.05 0"/><feBlend in2="effect1_dropShadow_10060_19120" result="effect2_dropShadow_10060_19120"/><feBlend in="SourceGraphic" in2="effect2_dropShadow_10060_19120" result="shape"/></filter><filter id="c" width="120" height="120" x="140" y="68" color-interpolation-filters="sRGB" filterUnits="userSpaceOnUse"><feFlood flood-opacity="0" result="BackgroundImageFix"/><feColorMatrix in="SourceAlpha" result="hardAlpha" values="0 0 0 0 0 0 0 0 0 0 0 0 0 0 0 0 0 0 127 0"/><feOffset dy="12"/><feGaussianBlur stdDeviation="10"/><feComposite in2="hardAlpha" operator="out"/><feColorMatrix values="0 0 0 0 0 0 0 0 0 0 0 0 0 0 0 0 0 0 0.03 0"/><feBlend in2="BackgroundImageFix" result="effect1_dropShadow_10060_19120"/><feColorMatrix in="SourceAlpha" result="hardAlpha" values="0 0 0 0 0 0 0 0 0 0 0 0 0 0 0 0 0 0 127 0"/><feOffset dy="2"/><feGaussianBlur stdDeviation="3"/><feComposite in2="hardAlpha" operator="out"/><feColorMatrix values="0 0 0 0 0 0 0 0 0 0 0 0 0 0 0 0 0 0 0.05 0"/><feBlend in2="effect1_dropShadow_10060_19120" result="effect2_dropShadow_10060_19120"/><feBlend in="SourceGraphic" in2="effect2_dropShadow_10060_19120" result="shape"/></filter></defs></svg>

<svg width="320" height="232" viewBox="0 0 320 232" fill="none" xmlns="http://www.w3.org/2000/svg">
<g filter="url(#filter0_dd_10060_19120)">
<rect x="80" y="76" width="80" height="80" rx="40" fill="white"/>
<g opacity="0.33">
<path d="M112.77 120.642C110.884 121.765 105.938 124.059 108.95 126.929C110.422 128.331 112.061 129.333 114.121 129.333H125.879C127.939 129.333 129.578 128.331 131.05 126.929C134.062 124.059 129.116 121.765 127.23 120.642C122.806 118.008 117.194 118.008 112.77 120.642Z" fill="#AA99EC"/>
<path d="M126 108.667C126 111.98 123.314 114.667 120 114.667C116.686 114.667 114 111.98 114 108.667C114 105.353 116.686 102.667 120 102.667C123.314 102.667 126 105.353 126 108.667Z" fill="#AA99EC"/>
</g>
</g>
<g filter="url(#filter1_dd_10060_19120)">
<rect x="120" y="76" width="80" height="80" rx="40" fill="white"/>
<g opacity="0.66">
<path d="M152.77 120.642C150.884 121.765 145.938 124.059 148.95 126.929C150.422 128.331 152.061 129.333 154.121 129.333H165.879C167.939 129.333 169.578 128.331 171.05 126.929C174.062 124.059 169.116 121.765 167.23 120.642C162.806 118.008 157.194 118.008 152.77 120.642Z" fill="#AA99EC"/>
<path d="M166 108.667C166 111.98 163.314 114.667 160 114.667C156.686 114.667 154 111.98 154 108.667C154 105.353 156.686 102.667 160 102.667C163.314 102.667 166 105.353 166 108.667Z" fill="#AA99EC"/>
</g>
</g>
<g filter="url(#filter2_dd_10060_19120)">
<rect x="160" y="76" width="80" height="80" rx="40" fill="white"/>
<path d="M192.77 120.642C190.884 121.765 185.938 124.059 188.95 126.929C190.422 128.331 192.061 129.333 194.121 129.333H205.879C207.939 129.333 209.578 128.331 211.05 126.929C214.062 124.059 209.116 121.765 207.23 120.642C202.806 118.008 197.194 118.008 192.77 120.642Z" fill="#AA99EC"/>
<path d="M206 108.667C206 111.98 203.314 114.667 200 114.667C196.686 114.667 194 111.98 194 108.667C194 105.353 196.686 102.667 200 102.667C203.314 102.667 206 105.353 206 108.667Z" fill="#AA99EC"/>
</g>
<defs>
<filter id="filter0_dd_10060_19120" x="60" y="68" width="120" height="120" filterUnits="userSpaceOnUse" color-interpolation-filters="sRGB">
<feFlood flood-opacity="0" result="BackgroundImageFix"/>
<feColorMatrix in="SourceAlpha" type="matrix" values="0 0 0 0 0 0 0 0 0 0 0 0 0 0 0 0 0 0 127 0" result="hardAlpha"/>
<feOffset dy="12"/>
<feGaussianBlur stdDeviation="10"/>
<feComposite in2="hardAlpha" operator="out"/>
<feColorMatrix type="matrix" values="0 0 0 0 0 0 0 0 0 0 0 0 0 0 0 0 0 0 0.03 0"/>
<feBlend mode="normal" in2="BackgroundImageFix" result="effect1_dropShadow_10060_19120"/>
<feColorMatrix in="SourceAlpha" type="matrix" values="0 0 0 0 0 0 0 0 0 0 0 0 0 0 0 0 0 0 127 0" result="hardAlpha"/>
<feOffset dy="2"/>
<feGaussianBlur stdDeviation="3"/>
<feComposite in2="hardAlpha" operator="out"/>
<feColorMatrix type="matrix" values="0 0 0 0 0 0 0 0 0 0 0 0 0 0 0 0 0 0 0.05 0"/>
<feBlend mode="normal" in2="effect1_dropShadow_10060_19120" result="effect2_dropShadow_10060_19120"/>
<feBlend mode="normal" in="SourceGraphic" in2="effect2_dropShadow_10060_19120" result="shape"/>
</filter>
<filter id="filter1_dd_10060_19120" x="100" y="68" width="120" height="120" filterUnits="userSpaceOnUse" color-interpolation-filters="sRGB">
<feFlood flood-opacity="0" result="BackgroundImageFix"/>
<feColorMatrix in="SourceAlpha" type="matrix" values="0 0 0 0 0 0 0 0 0 0 0 0 0 0 0 0 0 0 127 0" result="hardAlpha"/>
<feOffset dy="12"/>
<feGaussianBlur stdDeviation="10"/>
<feComposite in2="hardAlpha" operator="out"/>
<feColorMatrix type="matrix" values="0 0 0 0 0 0 0 0 0 0 0 0 0 0 0 0 0 0 0.03 0"/>
<feBlend mode="normal" in2="BackgroundImageFix" result="effect1_dropShadow_10060_19120"/>
<feColorMatrix in="SourceAlpha" type="matrix" values="0 0 0 0 0 0 0 0 0 0 0 0 0 0 0 0 0 0 127 0" result="hardAlpha"/>
<feOffset dy="2"/>
<feGaussianBlur stdDeviation="3"/>
<feComposite in2="hardAlpha" operator="out"/>
<feColorMatrix type="matrix" values="0 0 0 0 0 0 0 0 0 0 0 0 0 0 0 0 0 0 0.05 0"/>
<feBlend mode="normal" in2="effect1_dropShadow_10060_19120" result="effect2_dropShadow_10060_19120"/>
<feBlend mode="normal" in="SourceGraphic" in2="effect2_dropShadow_10060_19120" result="shape"/>
</filter>
<filter id="filter2_dd_10060_19120" x="140" y="68" width="120" height="120" filterUnits="userSpaceOnUse" color-interpolation-filters="sRGB">
<feFlood flood-opacity="0" result="BackgroundImageFix"/>
<feColorMatrix in="SourceAlpha" type="matrix" values="0 0 0 0 0 0 0 0 0 0 0 0 0 0 0 0 0 0 127 0" result="hardAlpha"/>
<feOffset dy="12"/>
<feGaussianBlur stdDeviation="10"/>
<feComposite in2="hardAlpha" operator="out"/>
<feColorMatrix type="matrix" values="0 0 0 0 0 0 0 0 0 0 0 0 0 0 0 0 0 0 0.03 0"/>
<feBlend mode="normal" in2="BackgroundImageFix" result="effect1_dropShadow_10060_19120"/>
<feColorMatrix in="SourceAlpha" type="matrix" values="0 0 0 0 0 0 0 0 0 0 0 0 0 0 0 0 0 0 127 0" result="hardAlpha"/>
<feOffset dy="2"/>
<feGaussianBlur stdDeviation="3"/>
<feComposite in2="hardAlpha" operator="out"/>
<feColorMatrix type="matrix" values="0 0 0 0 0 0 0 0 0 0 0 0 0 0 0 0 0 0 0.05 0"/>
<feBlend mode="normal" in2="effect1_dropShadow_10060_19120" result="effect2_dropShadow_10060_19120"/>
<feBlend mode="normal" in="SourceGraphic" in2="effect2_dropShadow_10060_19120" result="shape"/>
</filter>
</defs>
</svg>
